documentation/public/assets/images/toggle-group-do-and-dont-03.svg

<svg width="97" height="40" viewBox="0 0 97 40" fill="none" xmlns="http://www.w3.org/2000/svg">
<path d="M4 0.5H93C94.933 0.5 96.5 2.067 96.5 4V36C96.5 37.933 94.933 39.5 93 39.5H4C2.067 39.5 0.5 37.933 0.5 36V4C0.5 2.067 2.067 0.5 4 0.5Z" fill="white"/>
<path d="M25.3743 14.3636H27.9538L31.4084 22.7955H31.5447L34.9993 14.3636H37.5788V26H35.5561V18.0057H35.4482L32.2322 25.9659H30.7209L27.505 17.9886H27.397V26H25.3743V14.3636ZM42.2947 26.1761C41.7417 26.1761 41.2436 26.0777 40.8004 25.8807C40.361 25.6799 40.0125 25.3845 39.755 24.9943C39.5012 24.6042 39.3743 24.1231 39.3743 23.5511C39.3743 23.0587 39.4652 22.6515 39.647 22.3295C39.8288 22.0076 40.0769 21.75 40.3913 21.5568C40.7057 21.3636 41.0599 21.2178 41.4538 21.1193C41.8516 21.017 42.2625 20.9432 42.6868 20.8977C43.1982 20.8447 43.6129 20.7973 43.9311 20.7557C44.2493 20.7102 44.4804 20.642 44.6243 20.5511C44.772 20.4564 44.8459 20.3106 44.8459 20.1136V20.0795C44.8459 19.6515 44.719 19.3201 44.4652 19.0852C44.2114 18.8504 43.8459 18.733 43.3686 18.733C42.8648 18.733 42.4652 18.8428 42.1697 19.0625C41.8781 19.2822 41.6811 19.5417 41.5788 19.8409L39.6584 19.5682C39.8099 19.0379 40.0599 18.5947 40.4084 18.2386C40.7569 17.8788 41.183 17.6098 41.6868 17.4318C42.1906 17.25 42.7474 17.1591 43.3572 17.1591C43.7777 17.1591 44.1963 17.2083 44.6129 17.3068C45.0296 17.4053 45.4103 17.5682 45.755 17.7955C46.0997 18.0189 46.3762 18.3239 46.5845 18.7102C46.7966 19.0966 46.9027 19.5795 46.9027 20.1591V26H44.9254V24.8011H44.8572C44.7322 25.0436 44.5561 25.2708 44.3288 25.483C44.1054 25.6913 43.8232 25.8598 43.4822 25.9886C43.1451 26.1136 42.7493 26.1761 42.2947 26.1761ZM42.8288 24.6648C43.2417 24.6648 43.5997 24.5833 43.9027 24.4205C44.2057 24.2538 44.4387 24.0341 44.6016 23.7614C44.7682 23.4886 44.8516 23.1913 44.8516 22.8693V21.8409C44.7872 21.8939 44.6773 21.9432 44.522 21.9886C44.3705 22.0341 44.2 22.0739 44.0107 22.108C43.8213 22.142 43.6338 22.1723 43.4482 22.1989C43.2625 22.2254 43.1016 22.2481 42.9652 22.267C42.6584 22.3087 42.3838 22.3769 42.1413 22.4716C41.8989 22.5663 41.7076 22.6989 41.5675 22.8693C41.4273 23.036 41.3572 23.2519 41.3572 23.517C41.3572 23.8958 41.4955 24.1818 41.772 24.375C42.0485 24.5682 42.4008 24.6648 42.8288 24.6648ZM53.3288 17.2727V18.8636H48.3118V17.2727H53.3288ZM49.5504 15.1818H51.6072V23.375C51.6072 23.6515 51.6489 23.8636 51.7322 24.0114C51.8194 24.1553 51.933 24.2538 52.0732 24.3068C52.2133 24.3598 52.3686 24.3864 52.5391 24.3864C52.6679 24.3864 52.7853 24.3769 52.8913 24.358C53.0012 24.339 53.0845 24.322 53.1413 24.3068L53.4879 25.9148C53.3781 25.9527 53.2209 25.9943 53.0163 26.0398C52.8156 26.0852 52.5694 26.1117 52.2777 26.1193C51.7625 26.1345 51.2985 26.0568 50.8857 25.8864C50.4728 25.7121 50.1451 25.4432 49.9027 25.0795C49.6641 24.7159 49.5466 24.2614 49.5504 23.7159V15.1818ZM57.2933 20.8864V26H55.2365V14.3636H57.2479V18.7557H57.3501C57.5547 18.2633 57.871 17.875 58.299 17.5909C58.7308 17.303 59.2801 17.1591 59.9467 17.1591C60.5528 17.1591 61.0812 17.286 61.532 17.5398C61.9827 17.7936 62.3312 18.1648 62.5774 18.6534C62.8274 19.142 62.9524 19.7386 62.9524 20.4432V26H60.8956V20.7614C60.8956 20.1742 60.7441 19.7178 60.4411 19.392C60.1418 19.0625 59.7214 18.8977 59.1797 18.8977C58.8161 18.8977 58.4903 18.9773 58.2024 19.1364C57.9183 19.2917 57.6948 19.517 57.532 19.8125C57.3729 20.108 57.2933 20.4659 57.2933 20.8864ZM71.9467 19.5795L70.0717 19.7841C70.0187 19.5947 69.9259 19.4167 69.7933 19.25C69.6645 19.0833 69.4903 18.9489 69.2706 18.8466C69.0509 18.7443 68.782 18.6932 68.4638 18.6932C68.0357 18.6932 67.6759 18.786 67.3842 18.9716C67.0964 19.1572 66.9543 19.3977 66.9581 19.6932C66.9543 19.947 67.0471 20.1534 67.2365 20.3125C67.4297 20.4716 67.7479 20.6023 68.1911 20.7045L69.6797 21.0227C70.5054 21.2008 71.1191 21.483 71.5206 21.8693C71.9259 22.2557 72.1304 22.7614 72.1342 23.3864C72.1304 23.9356 71.9695 24.4205 71.6513 24.8409C71.3369 25.2576 70.8994 25.5833 70.3388 25.8182C69.7782 26.053 69.1342 26.1705 68.407 26.1705C67.3388 26.1705 66.4789 25.947 65.8274 25.5C65.1759 25.0492 64.7876 24.4223 64.6626 23.6193L66.6683 23.4261C66.7592 23.8201 66.9524 24.1174 67.2479 24.3182C67.5433 24.5189 67.9278 24.6193 68.4013 24.6193C68.8899 24.6193 69.282 24.5189 69.5774 24.3182C69.8767 24.1174 70.0263 23.8693 70.0263 23.5739C70.0263 23.3239 69.9297 23.1174 69.7365 22.9545C69.5471 22.7917 69.2517 22.6667 68.8501 22.5795L67.3615 22.267C66.5244 22.0928 65.9051 21.7992 65.5036 21.3864C65.102 20.9697 64.9032 20.4432 64.907 19.8068C64.9032 19.2689 65.049 18.803 65.3445 18.4091C65.6437 18.0114 66.0585 17.7045 66.5888 17.4886C67.1229 17.2689 67.7384 17.1591 68.4354 17.1591C69.4581 17.1591 70.263 17.3769 70.8501 17.8125C71.4411 18.2481 71.8066 18.8371 71.9467 19.5795Z" fill="#545454"/>
<path d="M4 0.5H93C94.933 0.5 96.5 2.067 96.5 4V36C96.5 37.933 94.933 39.5 93 39.5H4C2.067 39.5 0.5 37.933 0.5 36V4C0.5 2.067 2.067 0.5 4 0.5Z" stroke="#AFAFAF"/>
</svg>

<svg width="97" height="40" fill="none" xmlns="http://www.w3.org/2000/svg"><path d="M4 .5h89A3.5 3.5 0 0 1 96.5 4v32a3.5 3.5 0 0 1-3.5 3.5H4A3.5 3.5 0 0 1 .5 36V4A3.5 3.5 0 0 1 4 .5Z" fill="#fff"/><path d="M25.37 14.36h2.58l3.46 8.44h.13L35 14.36h2.58V26h-2.02v-8h-.11l-3.22 7.97h-1.5l-3.23-7.98h-.1V26h-2.03V14.36ZM42.3 26.18c-.55 0-1.05-.1-1.49-.3-.44-.2-.79-.5-1.04-.89a2.6 2.6 0 0 1-.39-1.44c0-.5.1-.9.28-1.22.18-.32.43-.58.74-.77.32-.2.67-.34 1.06-.44.4-.1.81-.18 1.24-.22l1.24-.14c.32-.05.55-.12.7-.2.14-.1.22-.25.22-.45v-.03c0-.43-.13-.76-.38-1a1.6 1.6 0 0 0-1.1-.35c-.5 0-.9.11-1.2.33-.3.22-.49.48-.6.78l-1.91-.27a3.07 3.07 0 0 1 2.03-2.14 5.44 5.44 0 0 1 2.93-.13c.41.1.79.27 1.14.5.34.22.62.52.82.91.22.39.32.87.32 1.45V26h-1.97v-1.2h-.07a2.51 2.51 0 0 1-1.39 1.2 3.5 3.5 0 0 1-1.19.19Zm.54-1.52c.41 0 .77-.08 1.07-.24.3-.17.54-.39.7-.66.17-.27.25-.57.25-.9v-1.02a.97.97 0 0 1-.33.15l-.5.12a16.16 16.16 0 0 1-1.05.16c-.31.04-.59.1-.83.2s-.43.23-.57.4a.97.97 0 0 0-.21.65 1 1 0 0 0 .41.86c.28.19.63.28 1.06.28Zm10.5-7.39v1.6H48.3v-1.6h5.02Zm-3.78-2.09h2.06v8.2c0 .27.04.48.12.63.09.15.2.24.34.3.14.05.3.08.47.08a2.01 2.01 0 0 0 .6-.08l.35 1.6a4.59 4.59 0 0 1-1.21.2c-.52.02-.98-.05-1.4-.22a2.17 2.17 0 0 1-.98-.81 2.4 2.4 0 0 1-.35-1.36v-8.54Zm7.74 5.7V26h-2.05V14.36h2v4.4h.11c.2-.5.52-.89.95-1.17a2.9 2.9 0 0 1 1.65-.43c.6 0 1.13.13 1.58.38.45.25.8.62 1.05 1.11.25.5.37 1.09.37 1.8V26H60.9v-5.24c0-.59-.16-1.04-.46-1.37-.3-.33-.72-.5-1.26-.5-.36 0-.69.09-.98.25-.28.15-.5.38-.67.67-.16.3-.24.66-.24 1.08Zm14.66-1.3-1.88.2a1.5 1.5 0 0 0-.8-.93 1.9 1.9 0 0 0-.8-.16c-.43 0-.8.1-1.09.28-.28.19-.43.43-.42.72 0 .26.09.46.28.62.19.16.5.3.95.4l1.49.31c.83.18 1.44.46 1.84.85.4.39.61.9.61 1.52 0 .55-.16 1.03-.48 1.45a3.1 3.1 0 0 1-1.31.98c-.56.23-1.2.35-1.93.35a4.48 4.48 0 0 1-2.58-.67 2.7 2.7 0 0 1-1.17-1.88l2-.2c.1.4.3.7.59.9.3.2.68.3 1.15.3.49 0 .88-.1 1.18-.3.3-.2.45-.45.45-.75 0-.25-.1-.45-.3-.62a2.02 2.02 0 0 0-.88-.37l-1.49-.31a3.54 3.54 0 0 1-1.86-.88 2.2 2.2 0 0 1-.6-1.58c0-.54.15-1 .44-1.4.3-.4.72-.7 1.25-.92a4.82 4.82 0 0 1 1.85-.33 4 4 0 0 1 2.41.65c.6.44.96 1.03 1.1 1.77Z" fill="#545454"/><path d="M4 .5h89A3.5 3.5 0 0 1 96.5 4v32a3.5 3.5 0 0 1-3.5 3.5H4A3.5 3.5 0 0 1 .5 36V4A3.5 3.5 0 0 1 4 .5Z" stroke="#AFAFAF"/></svg>
